source/img/icon-burger.svg

<svg fill="none" height="68" viewBox="0 0 76 68" width="76" xmlns="http://www.w3.org/2000/svg"><g fill="#81b3d2"><path d="m71.7113 45.3324h-67.42259c-2.3937 0-4.28871 1.971-4.28871 4.2376v3.4492c0 2.2666 1.89501 4.139 4.28871 4.139h.99738v.9855c0 5.4202 4.48819 9.7563 9.87401 9.7563h45.6798c5.4856 0 9.874-4.4347 9.874-9.7563v-.9855h.9974c2.294 0 4.2887-1.8724 4.2887-4.2376v-3.4492c0-2.168-1.895-4.139-4.2887-4.139zm-3.8898 12.8113c0 3.7449-3.0918 6.7999-6.8819 6.7999h-45.8792c-3.7901 0-6.88192-3.055-6.88192-6.7999v-.9855h59.64302zm5.1864-5.2231c0 .6899-.5984 1.2812-1.2966 1.2812h-67.42259c-.69816 0-1.29658-.5913-1.29658-1.2812v-3.4492c0-.5913.59842-1.1825 1.29658-1.1825h67.52229c.6982 0 1.2966.5912 1.2966 1.2811v3.3506z"/><path d="m16.1575 37.3496 5.3859 3.9419 5.4855-3.9419 5.4856 3.9419 5.4855-3.9419 5.3859 3.9419 5.4855-3.9419 5.4856 3.9419 5.4856-3.9419 5.4855 3.9419 6.2835-4.6318-1.6955-2.3651-4.588 3.2521-5.4855-3.942-5.4856 3.942-5.4856-3.942-5.4855 3.942-5.3859-3.942-5.4855 3.942-5.4856-3.942-5.4855 3.942-5.3859-3.942-5.4855 3.942-4.58797-3.2521-1.79527 2.3651 6.38324 4.6318z"/><path d="m70.7138 30.6486c0-.5913.0998-2.5622 0-2.9564-.6981-15.3736-15.0603-27.6922-32.7139-27.6922-17.6535 0-32.11546 12.3186-32.81362 27.6922v2.9564zm-32.7139-27.69214c15.958 0 29.1234 11.03744 29.7218 24.73574h-59.54329c.69816-13.6983 13.86349-24.73574 29.82149-24.73574z"/><path d="m38 16.7532c1.1017 0 1.9948-.8824 1.9948-1.9709 0-1.0886-.8931-1.971-1.9948-1.971s-1.9948.8824-1.9948 1.971c0 1.0885.8931 1.9709 1.9948 1.9709z"/><path d="m30.021 11.924c1.1017 0 1.9947-.8824 1.9947-1.97097 0-1.08854-.893-1.97097-1.9947-1.97097s-1.9948.88243-1.9948 1.97097c0 1.08857.8931 1.97097 1.9948 1.97097z"/><path d="m45.979 11.924c1.1017 0 1.9948-.8824 1.9948-1.97097 0-1.08854-.8931-1.97097-1.9948-1.97097s-1.9947.88243-1.9947 1.97097c0 1.08857.893 1.97097 1.9947 1.97097z"/></g></svg>

<svg width="76" height="68" viewBox="0 0 76 68" fill="none" xmlns="http://www.w3.org/2000/svg">
<path d="M71.7113 45.3324H4.28871C1.89501 45.3324 0 47.3034 0 49.57V53.0192C0 55.2858 1.89501 57.1582 4.28871 57.1582H5.28609V58.1437C5.28609 63.5639 9.77428 67.9 15.1601 67.9H60.8399C66.3255 67.9 70.7139 63.4653 70.7139 58.1437V57.1582H71.7113C74.0053 57.1582 76 55.2858 76 52.9206V49.4714C76 47.3034 74.105 45.3324 71.7113 45.3324ZM67.8215 58.1437C67.8215 61.8886 64.7297 64.9436 60.9396 64.9436H15.0604C11.2703 64.9436 8.17848 61.8886 8.17848 58.1437V57.1582H67.8215V58.1437ZM73.0079 52.9206C73.0079 53.6105 72.4095 54.2018 71.7113 54.2018H4.28871C3.59055 54.2018 2.99213 53.6105 2.99213 52.9206V49.4714C2.99213 48.8801 3.59055 48.2889 4.28871 48.2889H71.811C72.5092 48.2889 73.1076 48.8801 73.1076 49.57V52.9206H73.0079Z" fill="#81B3D2"/>
<path d="M16.1575 37.3496L21.5434 41.2915L27.0289 37.3496L32.5145 41.2915L38 37.3496L43.3859 41.2915L48.8714 37.3496L54.357 41.2915L59.8426 37.3496L65.3281 41.2915L71.6116 36.6597L69.9161 34.2946L65.3281 37.5467L59.8426 33.6047L54.357 37.5467L48.8714 33.6047L43.3859 37.5467L38 33.6047L32.5145 37.5467L27.0289 33.6047L21.5434 37.5467L16.1575 33.6047L10.672 37.5467L6.08403 34.2946L4.28876 36.6597L10.672 41.2915L16.1575 37.3496Z" fill="#81B3D2"/>
<path d="M70.7138 30.6486C70.7138 30.0573 70.8136 28.0864 70.7138 27.6922C70.0157 12.3186 55.6535 0 37.9999 0C20.3464 0 5.88444 12.3186 5.18628 27.6922C5.18628 28.0864 5.18628 30.0573 5.18628 30.6486H70.7138ZM37.9999 2.95646C53.9579 2.95646 67.1233 13.9939 67.7217 27.6922H8.17841C8.87657 13.9939 22.0419 2.95646 37.9999 2.95646Z" fill="#81B3D2"/>
<path d="M38 16.7532C39.1017 16.7532 39.9948 15.8708 39.9948 14.7823C39.9948 13.6937 39.1017 12.8113 38 12.8113C36.8983 12.8113 36.0052 13.6937 36.0052 14.7823C36.0052 15.8708 36.8983 16.7532 38 16.7532Z" fill="#81B3D2"/>
<path d="M30.021 11.924C31.1227 11.924 32.0157 11.0416 32.0157 9.95303C32.0157 8.86449 31.1227 7.98206 30.021 7.98206C28.9193 7.98206 28.0262 8.86449 28.0262 9.95303C28.0262 11.0416 28.9193 11.924 30.021 11.924Z" fill="#81B3D2"/>
<path d="M45.979 11.924C47.0807 11.924 47.9738 11.0416 47.9738 9.95303C47.9738 8.86449 47.0807 7.98206 45.979 7.98206C44.8773 7.98206 43.9843 8.86449 43.9843 9.95303C43.9843 11.0416 44.8773 11.924 45.979 11.924Z" fill="#81B3D2"/>
</svg>
